assets/img/promo/main/about/windmill.svg

<svg width="676" height="644" viewBox="0 0 676 644" fill="none" xmlns="http://www.w3.org/2000/svg">
<mask id="mask0_1003_32" style="mask-type:alpha" maskUnits="userSpaceOnUse" x="0" y="0" width="676" height="644">
<rect width="676" height="644" fill="#D9D9D9"/>
</mask>
<g mask="url(#mask0_1003_32)">
<path d="M280.158 418.272C308.464 381.129 335.23 343.355 359.43 303.451C383.629 263.469 405.042 221.909 421.836 177.195C426.015 178.773 518.927 238.47 559.26 270.803C582.067 289.02 603.92 308.34 623.939 330.106C638.826 346.272 652.759 363.464 663.099 383.495C669.185 395.245 674.025 407.547 675.052 421.19C676.592 442.246 667.499 457.072 651.366 467.56C630.833 480.887 607.806 485.067 584.413 487.275C554.64 490.035 525.014 487.906 495.388 483.963C449.922 477.812 405.702 465.904 362.363 450.29C335.963 440.747 309.93 430.101 283.751 420.007C282.651 419.613 281.698 418.982 280.304 418.351L280.158 418.272Z" fill="url(#paint0_linear_1003_32)"/>
<path d="M275.966 432.942C317.545 450.449 359.198 466.221 401.951 478.681C444.777 491.141 488.116 500.21 532.849 503.68C532.702 508.412 508.502 621.892 492.296 673.073C483.203 702.015 472.79 730.325 459.736 757.532C449.983 777.8 439.057 797.278 424.537 813.997C416.03 823.775 406.644 832.608 394.911 837.812C376.798 845.856 360.811 841.125 346.585 827.797C328.472 810.842 317.692 788.603 308.525 765.34C296.939 735.688 289.679 704.696 284.106 673.23C275.526 624.81 272.446 575.916 272.959 526.786C273.252 496.819 274.646 466.931 275.599 436.964C275.599 435.781 275.819 434.519 276.039 432.863L275.966 432.942Z" fill="url(#paint1_linear_1003_32)"/>
<path d="M259.747 432.47C257.034 480.417 255.934 527.891 258.134 575.444C260.334 623.076 265.614 670.234 276.394 717.078C272.14 718.418 164.342 728.591 114.036 727.882C85.6564 727.487 57.3501 725.595 29.3372 720.626C8.4375 716.92 -12.1689 711.715 -31.5286 702.015C-42.8218 696.337 -53.5283 689.476 -61.7415 678.988C-74.428 662.9 -75.1613 645.078 -67.8281 626.467C-58.4415 602.73 -42.0884 584.828 -24.2687 568.268C-1.60902 547.291 23.544 530.336 49.6502 514.879C89.8363 491.221 132.149 473.004 175.782 458.336C202.328 449.425 229.241 441.618 256.007 433.337C257.107 433.022 258.207 432.864 259.747 432.47Z" fill="url(#paint2_linear_1003_32)"/>
<path d="M254.865 418.118C211.672 430.263 169.359 443.827 128 460.782C86.5673 477.737 46.5279 497.846 8.46843 523.397C5.97513 519.454 -36.4843 412.361 -51.444 360.786C-59.8773 331.608 -66.9905 302.114 -71.3171 271.911C-74.5437 249.356 -76.377 226.723 -73.7371 203.933C-72.1971 190.605 -69.4105 177.593 -62.7372 165.922C-52.4707 147.942 -36.9243 141.712 -18.1512 143.447C5.75514 145.655 26.6548 156.853 46.7479 169.944C72.3409 186.583 95.1472 207.008 116.854 229.01C150.22 262.684 179.479 300.3 205.952 340.362C222.085 364.729 237.339 389.807 252.958 414.648C253.618 415.673 254.058 416.777 254.865 418.197V418.118Z" fill="url(#paint3_linear_1003_32)"/>
<path d="M266.738 407.549C242.759 367.094 217.752 327.9 190.033 290.757C162.313 253.534 132.174 218.757 97.9275 187.607C100.641 183.822 182.406 107.563 223.472 76.4135C246.645 58.8276 270.625 42.5034 295.998 28.7817C314.991 18.6087 334.424 9.7763 355.397 5.43897C367.644 2.91543 380.037 1.73252 392.43 4.96581C411.496 9.93402 421.763 23.8923 426.016 43.6864C431.369 68.8429 427.923 93.684 422.496 118.288C415.603 149.596 404.53 179.248 391.77 208.19C372.19 252.746 347.844 294.148 320.564 333.578C303.918 357.552 286.391 380.894 269.232 404.474C268.498 405.42 267.692 406.287 266.665 407.47L266.738 407.549Z" fill="url(#paint4_linear_1003_32)"/>
</g>
<defs>
<linearGradient id="paint0_linear_1003_32" x1="664.125" y1="465.115" x2="359.475" y2="324.274" gradientUnits="userSpaceOnUse">
<stop stop-color="white"/>
<stop offset="1" stop-color="white" stop-opacity="0"/>
</linearGradient>
<linearGradient id="paint1_linear_1003_32" x1="395.277" y1="836.393" x2="405.199" y2="471.541" gradientUnits="userSpaceOnUse">
<stop stop-color="white"/>
<stop offset="1" stop-color="white" stop-opacity="0"/>
</linearGradient>
<linearGradient id="paint2_linear_1003_32" x1="-71.2747" y1="648.863" x2="268.166" y2="584.761" gradientUnits="userSpaceOnUse">
<stop stop-color="white"/>
<stop offset="1" stop-color="white" stop-opacity="0"/>
</linearGradient>
<linearGradient id="paint3_linear_1003_32" x1="-50.7107" y1="149.046" x2="139.419" y2="439.023" gradientUnits="userSpaceOnUse">
<stop stop-color="white"/>
<stop offset="1" stop-color="white" stop-opacity="0"/>
</linearGradient>
<linearGradient id="paint4_linear_1003_32" x1="436.063" y1="24.681" x2="165.34" y2="276.425" gradientUnits="userSpaceOnUse">
<stop stop-color="white"/>
<stop offset="1" stop-color="white" stop-opacity="0"/>
</linearGradient>
</defs>
</svg>

<svg width="676" height="644" fill="none" xmlns="http://www.w3.org/2000/svg"><mask id="a" style="mask-type:alpha" maskUnits="userSpaceOnUse" x="0" y="0" width="676" height="644"><path fill="#D9D9D9" d="M0 0h676v644H0z"/></mask><g mask="url(#a)"><path d="M280.158 418.272c28.306-37.143 55.072-74.917 79.272-114.821 24.199-39.982 45.612-81.542 62.406-126.256 4.179 1.578 97.091 61.275 137.424 93.608 22.807 18.217 44.66 37.537 64.679 59.303 14.887 16.166 28.82 33.358 39.16 53.389 6.086 11.75 10.926 24.052 11.953 37.695 1.54 21.056-7.553 35.882-23.686 46.37-20.533 13.327-43.56 17.507-66.953 19.715-29.773 2.76-59.399.631-89.025-3.312-45.466-6.151-89.686-18.059-133.025-33.673-26.4-9.543-52.433-20.189-78.612-30.283-1.1-.394-2.053-1.025-3.447-1.656l-.146-.079z" fill="url(#paint0_linear_1003_32)"/><path d="M275.966 432.942c41.579 17.507 83.232 33.279 125.985 45.739 42.826 12.46 86.165 21.529 130.898 24.999-.147 4.732-24.347 118.212-40.553 169.393-9.093 28.942-19.506 57.252-32.56 84.459-9.753 20.268-20.679 39.746-35.199 56.465-8.507 9.778-17.893 18.611-29.626 23.815-18.113 8.044-34.1 3.313-48.326-10.015-18.113-16.955-28.893-39.194-38.06-62.457-11.586-29.652-18.846-60.644-24.419-92.11-8.58-48.42-11.66-97.314-11.147-146.444.293-29.967 1.687-59.855 2.64-89.822 0-1.183.22-2.445.44-4.101l-.073.079z" fill="url(#paint1_linear_1003_32)"/><path d="M259.747 432.47c-2.713 47.947-3.813 95.421-1.613 142.974 2.2 47.632 7.48 94.79 18.26 141.634-4.254 1.34-112.052 11.513-162.358 10.804-28.38-.395-56.686-2.287-84.699-7.256-20.9-3.706-41.506-8.911-60.866-18.611-11.293-5.678-22-12.539-30.213-23.027-12.686-16.088-13.42-33.91-6.086-52.521 9.387-23.737 25.74-41.639 43.56-58.199 22.659-20.977 47.812-37.932 73.918-53.389 40.186-23.658 82.499-41.875 126.132-56.543 26.546-8.911 53.459-16.718 80.225-24.999 1.1-.315 2.2-.473 3.74-.867z" fill="url(#paint2_linear_1003_32)"/><path d="M254.865 418.118c-43.193 12.145-85.506 25.709-126.865 42.664-41.433 16.955-81.472 37.064-119.532 62.615-2.493-3.943-44.952-111.036-59.912-162.611-8.433-29.178-15.546-58.672-19.873-88.875-3.227-22.555-5.06-45.188-2.42-67.978 1.54-13.328 4.326-26.34 11-38.011 10.266-17.98 25.813-24.21 44.586-22.475 23.906 2.208 44.806 13.406 64.899 26.497 25.593 16.639 48.4 37.064 70.106 59.066 33.366 33.674 62.625 71.29 89.098 111.352 16.133 24.367 31.387 49.445 47.006 74.286.66 1.025 1.1 2.129 1.907 3.549v-.079z" fill="url(#paint3_linear_1003_32)"/><path d="M266.738 407.549c-23.979-40.455-48.986-79.649-76.705-116.792-27.72-37.223-57.859-72-92.105-103.15 2.713-3.785 84.478-80.044 125.544-111.194 23.173-17.585 47.153-33.91 72.526-47.631 18.993-10.173 38.426-19.006 59.399-23.343 12.247-2.524 24.64-3.706 37.033-.473 19.066 4.968 29.333 18.926 33.586 38.72 5.353 25.157 1.907 49.998-3.52 74.602-6.893 31.308-17.966 60.96-30.726 89.902-19.58 44.556-43.926 85.958-71.206 125.388-16.646 23.974-34.173 47.316-51.332 70.896-.734.946-1.54 1.813-2.567 2.996l.073.079z" fill="url(#paint4_linear_1003_32)"/></g><defs><linearGradient id="paint0_linear_1003_32" x1="664.125" y1="465.115" x2="359.475" y2="324.274" gradientUnits="userSpaceOnUse"><stop stop-color="#fff"/><stop offset="1" stop-color="#fff" stop-opacity="0"/></linearGradient><linearGradient id="paint1_linear_1003_32" x1="395.277" y1="836.393" x2="405.199" y2="471.541" gradientUnits="userSpaceOnUse"><stop stop-color="#fff"/><stop offset="1" stop-color="#fff" stop-opacity="0"/></linearGradient><linearGradient id="paint2_linear_1003_32" x1="-71.275" y1="648.863" x2="268.166" y2="584.761" gradientUnits="userSpaceOnUse"><stop stop-color="#fff"/><stop offset="1" stop-color="#fff" stop-opacity="0"/></linearGradient><linearGradient id="paint3_linear_1003_32" x1="-50.711" y1="149.046" x2="139.419" y2="439.023" gradientUnits="userSpaceOnUse"><stop stop-color="#fff"/><stop offset="1" stop-color="#fff" stop-opacity="0"/></linearGradient><linearGradient id="paint4_linear_1003_32" x1="436.063" y1="24.681" x2="165.34" y2="276.425" gradientUnits="userSpaceOnUse"><stop stop-color="#fff"/><stop offset="1" stop-color="#fff" stop-opacity="0"/></linearGradient></defs></svg>
